packages/assets/static/images/icons/bold/gauge--bold.svg

<svg width="24" height="24" viewBox="0 0 24 24" xmlns="http://www.w3.org/2000/svg">
<path d="M19.6762 7.6721C18.6693 6.66297 17.4727 5.86317 16.1552 5.31882C14.8377 4.77448 13.4254 4.49637 11.9999 4.50053H11.9615C5.98588 4.52116 1.12494 9.44678 1.12494 15.4815V17.6255C1.12494 18.1228 1.32248 18.5997 1.67411 18.9514C2.02574 19.303 2.50266 19.5005 2.99994 19.5005H20.9999C21.4972 19.5005 21.9741 19.303 22.3258 18.9514C22.6774 18.5997 22.8749 18.1228 22.8749 17.6255V15.3755C22.8788 13.9436 22.598 12.5252 22.0489 11.2027C21.4998 9.88023 20.6932 8.68011 19.6762 7.6721ZM20.6249 17.2505H11.9362L16.2899 11.1568C16.3761 11.0366 16.4378 10.9007 16.4714 10.7567C16.5051 10.6127 16.51 10.4635 16.486 10.3176C16.462 10.1717 16.4094 10.0319 16.3314 9.90632C16.2534 9.78072 16.1513 9.67171 16.0312 9.58553C15.911 9.49935 15.7751 9.43769 15.6311 9.40405C15.4871 9.37041 15.3379 9.36547 15.192 9.38949C15.0461 9.41352 14.9063 9.46605 14.7807 9.54408C14.6551 9.62212 14.5461 9.72412 14.4599 9.84428L9.17056 17.2505H3.37494V15.4815C3.37494 15.3202 3.37494 15.1599 3.38806 15.0005H5.24994C5.54831 15.0005 5.83446 14.882 6.04543 14.671C6.25641 14.4601 6.37494 14.1739 6.37494 13.8755C6.37494 13.5772 6.25641 13.291 6.04543 13.08C5.83446 12.8691 5.54831 12.7505 5.24994 12.7505H3.80806C4.83088 9.62022 7.55806 7.26428 10.8749 6.8246V8.62553C10.8749 8.9239 10.9935 9.21005 11.2044 9.42103C11.4154 9.63201 11.7016 9.75053 11.9999 9.75053C12.2983 9.75053 12.5845 9.63201 12.7954 9.42103C13.0064 9.21005 13.1249 8.9239 13.1249 8.62553V6.82553C14.7476 7.03846 16.2761 7.70862 17.5321 8.75777C18.7881 9.80692 19.7197 11.1917 20.2181 12.7505H18.7499C18.4516 12.7505 18.1654 12.8691 17.9544 13.08C17.7435 13.291 17.6249 13.5772 17.6249 13.8755C17.6249 14.1739 17.7435 14.4601 17.9544 14.671C18.1654 14.882 18.4516 15.0005 18.7499 15.0005H20.6156C20.6212 15.1252 20.6249 15.2499 20.6249 15.3755V17.2505Z"/>
</svg>

<svg viewBox="0 0 24 24" xmlns="http://www.w3.org/2000/svg" aria-hidden="true" fill="currentColor"><path d="M19.676 7.672A10.8 10.8 0 0 0 12 4.501h-.039C5.986 4.52 1.125 9.447 1.125 15.48v2.144A1.875 1.875 0 0 0 3 19.5h18a1.875 1.875 0 0 0 1.875-1.875v-2.25a10.8 10.8 0 0 0-3.199-7.703m.949 9.578h-8.689l4.354-6.093a1.125 1.125 0 1 0-1.83-1.313L9.17 17.25H3.376v-1.768c0-.162 0-.322.013-.481H5.25a1.125 1.125 0 1 0 0-2.25H3.808c1.023-3.13 3.75-5.487 7.067-5.926v1.8a1.125 1.125 0 0 0 2.25 0v-1.8a8.63 8.63 0 0 1 7.093 5.926H18.75a1.125 1.125 0 0 0 0 2.25h1.866q.008.186.009.375z"/></svg>
